X:900
T:Green Pigeon, The
R:reel
H:See also "Westport Chorus", #331, "O'Rourke's", #245
Z:id:hn-reel-900
M:C|
L:1/8
K:D
FDAF GFED | FDAF G2AG | FDAF GFEc |1 dBcA G2AG :|2 dBcA G3B ||
~A3B cAGE | ~A3B cdec | ~A3B cAGE | dBcA G3B |
~A3B cAGE | ~A3B cdeg | ~f3d ~e3c | dcAF G2AG ||
P:variations
|: FDAF GFED | FDAF ~G3E | FDAF GFED |1 d2cA G2AG :|2 d2cA G3B ||
~A3B cABG | ~A3B cAed | cAAB cAGE | d2cA G3B |
~A3B cABG | ~A3B cde2 | ~f3d ~e3c | dcAF G2AG ||

